public/icon-bike.svg

<svg width="24" height="24" viewBox="0 0 24 24" fill="none" xmlns="http://www.w3.org/2000/svg">
<path fill-rule="evenodd" clip-rule="evenodd" d="M17.5 3.75C17.5 4.85 16.6 5.75 15.5 5.75C14.4 5.75 13.5 4.85 13.5 3.75C13.5 2.65 14.4 1.75 15.5 1.75C16.6 1.75 17.5 2.65 17.5 3.75ZM0 17.25C0 14.45 2.2 12.25 5 12.25C7.8 12.25 10 14.45 10 17.25C10 20.05 7.8 22.25 5 22.25C2.2 22.25 0 20.05 0 17.25ZM5 20.75C3.1 20.75 1.5 19.15 1.5 17.25C1.5 15.35 3.1 13.75 5 13.75C6.9 13.75 8.5 15.35 8.5 17.25C8.5 19.15 6.9 20.75 5 20.75ZM19.1 11.25C17 11.25 15.3 10.45 14 9.15L13.2 8.35L10.8 10.75L13 13.05V19.25H11V14.25L7.8 11.45C7.4 11.15 7.2 10.65 7.2 10.05C7.2 9.55 7.4 9.05 7.8 8.65L10.6 5.85C10.9 5.45 11.4 5.25 12 5.25C12.6 5.25 13.1 5.45 13.6 5.85L15.5 7.75C16.4 8.65 17.6 9.25 19.1 9.25V11.25ZM19 12.25C16.2 12.25 14 14.45 14 17.25C14 20.05 16.2 22.25 19 22.25C21.8 22.25 24 20.05 24 17.25C24 14.45 21.8 12.25 19 12.25ZM15.5 17.25C15.5 19.15 17.1 20.75 19 20.75C20.9 20.75 22.5 19.15 22.5 17.25C22.5 15.35 20.9 13.75 19 13.75C17.1 13.75 15.5 15.35 15.5 17.25Z" fill="black"/>
<rect x="2" y="1" width="6" height="6" rx="1" fill="black"/>
</svg>

<svg width="24" height="24" fill="none" xmlns="http://www.w3.org/2000/svg"><path fill-rule="evenodd" clip-rule="evenodd" d="M17.5 3.75c0 1.1-.9 2-2 2s-2-.9-2-2 .9-2 2-2 2 .9 2 2zM0 17.25c0-2.8 2.2-5 5-5s5 2.2 5 5-2.2 5-5 5-5-2.2-5-5zm5 3.5c-1.9 0-3.5-1.6-3.5-3.5s1.6-3.5 3.5-3.5 3.5 1.6 3.5 3.5-1.6 3.5-3.5 3.5zm14.1-9.5c-2.1 0-3.8-.8-5.1-2.1l-.8-.8-2.4 2.4 2.2 2.3v6.2h-2v-5l-3.2-2.8c-.4-.3-.6-.8-.6-1.4 0-.5.2-1 .6-1.4l2.8-2.8c.3-.4.8-.6 1.4-.6.6 0 1.1.2 1.6.6l1.9 1.9c.9.9 2.1 1.5 3.6 1.5v2zm-.1 1c-2.8 0-5 2.2-5 5s2.2 5 5 5 5-2.2 5-5-2.2-5-5-5zm-3.5 5c0 1.9 1.6 3.5 3.5 3.5s3.5-1.6 3.5-3.5-1.6-3.5-3.5-3.5-3.5 1.6-3.5 3.5z" fill="#000"/><rect x="2" y="1" width="6" height="6" rx="1" fill="#000"/></svg>
